X:1
T:Title
T:Nocturne 1 Op.9
T:Frederic Chopin
C:Composer
%%score { ( 1 3 ) | ( 2 4 ) }
L:1/8
Q:1/4=100
M:6/4
K:Db
V:1 treble nm="Piano" snm="Pno."
V:3 treble 
V:2 bass 
V:4 bass 
V:1
 z6!mp! (bc'd'=abg | !>!f2 f2 f2 f2) (gfec | %2
 d4 B2)!>(! (11:3:11(b2 c'2 d'2 =a2 b2 a2 _a2 __b2 c'2 _b2 g2) | %3
 (11:6:22(fg=efb=a_a=g_gfe _e=d_dcdc=Bcf=e_e!>)! | d4) B2 (b2 b2 b2 | a6-) a4- a z | %6
 (f6 e2 fed__B | A4) (d2 e2 fede |[Q:1/4=92] f6)[Q:1/4=100] (bc'd'=a{/c'}bg | f2 f2 f2 f2) (gfec | %10
 d4 B2) (11:6:11(bc'd'=aba_a__bc'_bg) | %11
 (3(!wedge!f!8va(!f''=e'' (3_e''d''c'' (3b'g'f' (3=e'_e'd' (3c'b=a!8va)! (3gfc) | d4 B2 (b2 b2 b2 | %13
 b4) (=d2 Te2 de g>f | f4)!<(! (=e2{/fg} (7:6:7fef=g=abc' | d'4)!<)! (3(bgB d4 c2) | %16
({/B} f'3 d' (3bgB d4 c2) |!8va(!({/b} d''2- (3d''b'g'!8va)! (3d'bB _c4 =A2 | B6) z6 | %19
 !>![Ff]6 !>![_F_f]6 | ([Ee][Ff] !>![Ee]2) [Cc]2 [B,B]2 [A,A]4 | [B,B]2 !^![Cc]4 [Dd]2 !^![Ee]4 | %22
 ([Ff][Gg] !^![Bb]2) [Aa]2 !^![Ff]6 | !>![Ff]6 !>![=E=e]6 | %24
 (!^![=D=d]!^![=E=e] !>![Dd]2) [=A,=A]2 !>![=B,=B]6 | %25
 (!^![=D=d]!^![=E=e] !^![Dd]2) !^![=A,=A]2 !>![B,B]6 | !>![Cc]6 !>![Dd]6 | [Ff]6 [_F_f]6 | %28
 [Ee][Ff] [Ee]2 [Cc]2 [B,B]2 [A,A]4 | [B,B]2 [Cc]4 [Dd]2 [Ee]4 | [Ff][Gg] [Bb]2 [Aa]2{/a} F6 | %31
 !>![Ff]6 !>![=E=e]6 | (!^![=D=d]!^![=E=e] !>![Dd]2) [=A,=A]2 !>![=B,=B]6 | %33
 (!^![=D=d]!^![=E=e] !^![Dd]2) !^![=A,=A]2 !>![B,B]6 | (!>![Cc]6 !>![Dd]6) | %35
 [Gg]2 [Ff][Gg][Aa][Bb] ([Bb]2 [Ee]2) [Aa]2- | [Aa]2 [Bb][Aa][Gg][Ff] [Ff]2 [Gg][Ff][Ee][Dd] | %37
 [Ee]8- [Ee]2!mp! [=E=e]2 |!>(! [Ff]6 [=E=e]6!>)! | %39
!p! ((!^![=D=d]!^![=E=e] !>![Dd]2)) [=A,=A]2 !>![=B,=B]6 | %40
 ((!^![=D=d]!^![=E=e] !^![Dd]2)) !^![=A,=A]2!mf! !>![B,B]6 | ((!>![Cc]6 !>![Dd]6)) | %42
 [Gg]2 [Ff][Gg][Aa][Bb] ([Bb]2 [Ee]2) [Aa]2- | [Aa]2 [Bb][Aa][Gg][Ff] [Ff]2 [Gg][Ff][Ee][Dd] | %44
 [Ee]8- [Ee]2!mp! [=E=e]2 |!>(! [Ff]6 [=E=e]6!>)! | %46
!p! ((!^![=D=d]!^![=E=e] !>![Dd]2)) [=A,=A]2 !>![=B,=B]6 | %47
 ((!^![=D=d]!^![=E=e] !^![Dd]2)) !^![=A,=A]2!mf! !>![B,B]6 | ((!>![Cc]6 !>![Dd]6)) | f4 ef e4 d2 | %50
 [_ca]3 [db][ca][db] [ca]3 z z2 | f4 ef e4 d2 | [_ca][db][ca][db][ca][db] [ca]6 | %53
 [d'f']3 [_c'e'][ac'][fa] [_cf]4 [ceg]2 | _c12 |!8vb(! [df]3 [_ce][Ac][FA] [_CF]4 [CEG]2 | %56
 _C12!8vb)! | z12 | z12 | [df]4 [Ae][df] [Ae]4 [Fd]2 | [fa]3 [gb][fa][gb] [fa]3 z z2 | %61
 [df]4 [Ae][df] [Ae]4 [Fd]2 | [fa][gb][fa][gb][fa][gb] [fa]6 | [d'f']3 [ae'][fd'][fa] [df]4 [eg]2 | %64
 [gb]6 [fa]6 | [df]12- | [df]12- | [df]12- | [df]12 | z6 (bc'd'=abg | !>!f2 f2 f2 f2) (gfec | %71
 d4 B2) (bc'd'=a (3c'bg | %72
 fg=ef)!8va(!(f''=e'' _e''d''c''(20:3:20b'=a'g'f'=e'_e'd'c'b=ag!8va)!fgef=Bcfed) | d4 B2 b2 b2 b2 | %74
 b4 =d2 (7:6:7efedeg3/2f/ | f4 =e2 Tf2{ef} =g=abc' | d'4 (3(bgB d4 c2) |({/B} f'3 d' (3bgB d4 c2) | %78
!8va(!({/b} d''2- (3d''b'g'!8va)! (3d'bB _c4 =A2 | B6) _c4 =A2 | B6 _c/e/g/_c'/ e' z z =A | %81
 B4 z2 e'6- | %82
[Q:1/4=108] (e'[_c'e'][=ac'][ga][eg][Q:1/4=105][_ce] [=Ac][GA][EG][_CE][A,C][Q:1/4=98][G,A,E]) | %83
 z2 z2 z8[Q:1/4=92] | z12 |] %85
V:2
 z6!ped! z6!ped-up! |!ped! (!>!B,,F,DB,FF,)!ped-up!!ped! (!>!B,,F,E=A,FF,)!ped-up! | %2
!ped!!>(! (!>!B,,F,DB,FF,)!ped-up!!>)!!ped-up!!ped!!<(! (!>!B,,F,DB,FF,)!ped-up! | %3
!ped! (!>!B,,F,DB,FF,) (!>!B,,F,E=A,F!<)!!>(!F,)!ped-up! | %4
!ped!!>(! (!>!B,,F,DB,FF,)!>)!!ped-up!!>)!!ped! (!>!B,,F,DB,FF,)!ped-up! |!ped-up! %5
!ped! (!>!D,,F,DA,FF,)!ped-up!!ped! (!>!G,,D,B,G,DD,)!ped-up! | %6
!ped! (!>!D,,D,A,F,DD,)!ped-up!!ped! (!>!G,,D,__B,G,DD,)!ped-up! | %7
!ped! (!>!D,,D,A,F,DD,)!ped-up!!ped! (!>!G,,D,__B,G,EC,)!ped-up! | %8
!ped!!>(! (!>!F,,C,=A,F,EA,)!ped-up!!>)!!ped! (!>!B,,F,DB,FF,)!ped-up! | %9
!ped! (!>!B,,F,DB,FF,)!ped-up!!ped! (!>!B,,F,E=A,FF,)!ped-up! | %10
!ped! (!>!B,,F,DB,FF,)!ped-up!!ped! (!>!B,,F,DB,FF,)!ped-up! | %11
!ped! (!>!B,,F,DB,FF,)!ped-up!!ped! (!>!B,,F,E=A,FF,) |!ped-up! %12
!ped! (!>!B,,F,DB,FF,)!ped-up!!ped! (!>!B,,F,DB,FF,)!ped-up! | %13
!ped! (!>!B,,F,=DB,AB,)!ped-up!!ped! (!>!E,G,EB,GE)!ped-up! | %14
!ped! (!>!C,=G,=ECBC)!ped-up!!ped! (!>!F,C[K:treble]=A_EcA)!ped-up! | %15
!f!!ped! (B,,F,DB,E,G)!ped-up!!ped! (F,, z B,FE=A,) |!ped-up! %16
!ped!!<(! (B,,F,DB,E,G)!ped-up!!ped! (F,, z B,FE=A,)!ped-up!!<)! | %17
!<(!!ped! (G,,D,!<)!!>(!G,B,_FG,) (z G,_CEF,E)!ped-up!!>)! | %18
!mp!!ped!!>(! (B,,F,DB,FD B,F,D,B,,F,,E,,)!ped-up!!>)! | %19
!p!!ped! (D,,A,,D,A,D,A,,)!ped! (D,,!ped-up!A,,D,__A,D,A,,)!ped-up! | %20
!ped! (D,,A,,C,G,C,A,,)!ped! (D,,!ped-up!A,,C,G,C,A,,)!ped-up! | %21
!ped!!<(! (D,,A,,C,G,C,A,,)!ped-up!!ped! (D,,!ped-up!A,,C,G,C,A,,)!ped-up!!<)! | %22
!mp!!ped! (D,,A,,E,A,C,A,,)!ped-up!!ped!!>(! (D,,A,,D,A,D,A,,)!ped-up!!>)! | %23
!p!!ped!!>(! (D,,A,,D,A,D,A,,)!ped-up!!>)!!ped-up!!ped! (^C,,=A,,^C,=G,C,A,,) | %24
!ped! (=D,,=A,,=D,^F,D,A,,)!ped-up!!ped! (D,,=G,,D,=G,D,G,,)!ped-up! | %25
!ped! (=D,,=A,,=D,^F,D,A,,)!ped-up!!mp!!ped-up!!ped! (!>!=G,,^C,=E,B,E,C,)!ped-up! | %26
!mf!!ped! (A,,E,G,__B,A,A,,)!ped-up!!ped!!>(! (D,,A,,D,A,D,A,,)!ped-up!!>)! | %27
!p!!ped! (D,,A,,D,A,D,A,,)!ped! (D,,!ped-up!A,,D,__A,D,A,,)!ped-up! | %28
!ped! (D,,A,,C,G,C,A,,)!ped! (D,,!ped-up!A,,C,G,C,A,,)!ped-up! | %29
!ped!!<(! (D,,A,,C,G,C,A,,)!ped-up!!ped! (D,,!ped-up!A,,C,G,C,A,,)!ped-up!!<)! | %30
!ped! (D,,A,,E,A,C,A,,)!ped-up!!ped!!>(! (D,,A,,D,A,D,A,,)!ped-up!!>)! | %31
!ped!!>(! (D,,A,,D,A,D,A,,)!ped-up!!>)!!ped-up!!ped! (^C,,=A,,^C,=G,C,A,,) | %32
!ped! (=D,,=A,,=D,^F,D,A,,)!ped-up!!ped! (D,,=G,,D,=G,D,G,,)!ped-up! | %33
!ped! (=D,,=A,,=D,^F,D,A,,)!ped-up!!mf!!ped-up!!ped! (!>!=G,,^C,=E,B,E,C,)!ped-up! | %34
!f!!ped! (A,,E,G,__B,A,A,,)!ped-up!!ped! D,,A,,D,A,D,B,,!ped-up! | %35
!ped! (G,,B,,E,B,E,B,,)!ped-up!!ped! (G,,C,E,A,E,C,)!ped-up! | %36
!ped! (F,,A,,D,A,D,A,,)!ped-up!!ped! (D,,A,,D,A,D,A,,)!ped-up! | %37
!ped! (D,,B,,E,=G,E,B,,)!ped-up!!ped! (D,,=A,,C,_G,C,_A,,)!ped-up! | %38
!ped! (D,,A,,D,A,D,A,,)!ped-up!!ped! (^C,,=A,,^C,=G,C,A,,)!ped-up! | %39
!ped! (=D,,=A,,=D,^F,D,A,,)!ped-up!!ped! (D,,=G,,D,=G,D,G,,)!ped-up! | %40
!ped! (=D,,=A,,=D,^F,D,A,,)!ped-up!!ped! (=G,,^C,=E,B,E,C,)!ped-up! | %41
!ped!!<(! (A,,E,G,__B,A,A,,)!ped-up!!ped! (D,,A,,D,A,D,A,,)!ped-up!!<)!!ped-up! | %42
!f!!ped! (G,,B,,E,B,E,B,,)!ped-up!!ped! (G,,C,E,A,E,C,)!ped-up! | %43
!ped! (F,,A,,D,A,D,A,,)!ped-up!!ped! (D,,A,,D,A,D,A,,)!ped-up! | %44
!ped! (D,,B,,E,=G,E,B,,)!ped-up!!ped! (D,,=A,,C,_G,C,_A,,)!ped-up! | %45
!ped! (D,,A,,D,A,D,A,,)!ped-up!!ped! (^C,,=A,,^C,=G,C,A,,)!ped-up! | %46
!ped! (=D,,=A,,=D,^F,D,A,,)!ped-up!!ped! (D,,=G,,D,=G,D,G,,)!ped-up! | %47
!ped! (=D,,=A,,=D,^F,D,A,,)!ped-up!!ped! (=G,,^C,=E,B,E,C,)!ped-up! | %48
!ped! (A,,E,G,__B,A,A,,)!ped-up!!ped! (D,,A,,D,A,D,A,,)!ped-up! | %49
!ped! D,,A,,D,A,D,A,,!ped-up!!ped! D,,A,,D,A,D,A,,!ped-up! | %50
!ped! D,,A,,D,A,D,A,,!ped-up!!ped! D,,A,,D,A,D,A,,!ped-up! | %51
!ped! D,,A,,D,A,D,A,,!ped-up!!ped! D,,A,,D,A,D,A,,!ped-up! | %52
!ped! D,,A,,D,A,D,A,,!ped-up!!ped! D,,A,,D,A,D,A,,!ped-up! | %53
!ped! D,,A,,D,A,D,A,,!ped-up!!ped! D,,A,,D,A,D,A,,!ped-up! | %54
!ped! D,,A,,D,A,D,A,,!ped-up!!ped! D,,A,,D,A,D,A,,!ped-up! | %55
!ped! D,,A,,D,A,D,A,,!ped-up!!ped! D,,A,,D,A,D,A,,!ped-up! | %56
!ped! D,,A,,D,A,D,A,,!ped-up!!ped! D,,A,,D,A,D,A,,!ped-up! | %57
!ped! D,,A,,D,A,D,G,,!ped-up!!ped! D,A,DA,D,A,, | %58
!ped! D,A,DA,D,A,,!ped-up!!ped! D,A,DA,D,A,,!ped-up! | %59
!ped! D,A,DA,D,A,,!ped-up!!ped! D,A,DA,D,A,,!ped-up! | %60
!ped! D,A,DA,D,A,,!ped-up!!ped! D,A,DA,D,A,,!ped-up! | %61
!ped! D,A,DA,D,A,,!ped-up!!ped! D,A,DA,D,A,,!ped-up! | %62
!ped! D,A,DA,D,A,,!ped-up!!ped! D,A,DA,D,A,,!ped-up! | %63
!ped! D,A,DA,D,A,,!ped-up!!ped! D,A,DA,D,A,,!ped-up! | %64
!ped! D,A,DA,D,A,,!ped-up!!ped! D,A,DA,D,A,,!ped-up! | %65
!ped! D,A,DA,D,A,,!ped-up!!ped! D,A,DA,D,A,,!ped-up! | %66
!ped! D,A,DA,D,!ped!=A,,!ped-up! D,=A,DA,D,_A,, | %67
!ped! D,A,DA,D,G,,!ped-up!!ped! D,G,DG,D,A,,!ped-up! | %68
!ped! D,A,DA,D,=A,,!ped-up!!ped! D,=A,DA,D,A,,!ped-up! | %69
!ped! D,=A,DA,D,B,,!mp!!ped-up!!ped!!<(! D,F,DB,FF,!ped-up!!<)! | %70
!mf!!ped! (!>!B,,F,DB,FF,)!ped-up!!ped! (!>!B,,F,E=A,FF,)!ped-up! | %71
!ped!!>(! (!>!B,,F,DB,FF,)!ped-up!!>)!!ped-up!!ped! (!>!B,,F,DB,FF,)!ped-up! | %72
!ped! (!>!B,,F,DB,FF,) (!>!B,,F,E!mp!=A,FF,)!ped-up! | %73
!ped!!>(! (!>!B,,F,DB,FF,)!ped-up!!>)!!ped! (!>!B,,F,DB,FF,)!ped-up! | %74
!ped! B,,F,=DB,AB,!ped! E,!ped-up!G,EB,GE | %75
!ped! C,=G,=ECBC!ped-up!!ped! F,C[K:treble]=A_EcA |!ped-up! %76
!mf!!ped! (B,,F,DB,E,G)!ped-up!!ped! (F,, z B,FE=A,)!ped-up! | %77
!ped!!<(! (B,,F,DB,E,G)!ped-up!!ped! (F,, z B,FE=A,)!ped-up!!<)! | %78
!<(!!ped! (G,,D,!<)!!>(!G,B,_FG,) (z G,_CEF,E)!ped-up!!>)! | %79
!mp!!ped! B,,F,DB,FF,!ped-up!!ped! B,,G,E=A,GG,!ped-up! | %80
!mp!!ped! B,,F,DB,FF,!mp!!ped-up!!ped! B,,F,DB,FF,!ped-up! | %81
!ped! B,,F,DB,FF,!ped-up!!ped! B,,G,=A,_CEG!ped-up! | =A2 z2 z8 | %83
!ped! [B,,,B,,F,B,=D]6 ([B,,,B,,F,B,D]2 [B,,,B,,F,B,D]2 [B,,,B,,B,D]2)!ped-up! | %84
 !arpeggio!!fermata![B,,,B,,=D,F,B,=D]8 z4 |] %85
V:3
 x12 | x12 | x12 | x12 | x12 | z6 d2 Bcdg | x12 | x12 | x12 | x12 | x12 | %11
 x2/3!8va(! x28/3!8va)! x2 | x12 | x12 | x12 | x12 | x12 |!8va(! x4!8va)! x8 | x12 | x12 | x12 | %21
 x12 | x12 | x12 | x12 | x12 | x12 | x12 | x12 | x12 | z6{/A} f6 | x12 | x12 | x12 | x12 | x12 | %36
 x12 | x12 | x12 | x12 | x12 | x12 | x12 | x12 | x12 | x12 | x12 | x12 | x12 | [F_c]6 [Fc]6 | x12 | %51
 [F_c]8 [Fc]4 | x12 | x12 | [gb]6 [fa]6 |!8vb(! x12 | [GB]6 [FA]6!8vb)! | x12 | x12 | x12 | x12 | %61
 x12 | x12 | x12 | x12 | x12 | x12 | x12 | x12 | x12 | x12 | x12 | x4!8va(! x133/20!8va)! x27/20 | %73
 x12 | x12 | x12 | x12 | x12 |!8va(! x4!8va)! x8 | x12 | x12 | z6 g'6- | g' z z2 z8 | x12 | x12 |] %85
V:4
 x12 | x12 | x12 | x12 | x12 | x12 | x12 | x12 | x12 | x12 | x12 | x12 | x12 | x12 | %14
 x8[K:treble] x4 | z7 F,4 z | z7 F,4 z | z6 E,6 | x12 | x12 | x12 | x12 | x12 | x12 | x12 | x12 | %26
 x12 | x12 | x12 | x12 | x12 | x12 | x12 | x12 | x12 | x12 | x12 | x12 | x12 | x12 | x12 | x12 | %42
 x12 | x12 | x12 | x12 | x12 | x12 | x12 | x12 | x12 | x12 | x12 | x12 | x12 | x12 | x12 | x12 | %58
 x12 | x12 | x12 | x12 | x12 | x12 | x12 | x12 | x12 | x12 | x12 | x12 | x12 | x12 | x12 | x12 | %74
 z4 z8 | x8[K:treble] x4 | z7 F,4 z | z7 F,4 z | z6 E,6 | x z z2 z8 | x z z2 z3 z z2 z2 | %81
 z4 z2 z2 z4 | x12 | z6 z4 G,F, | x12 |] %85

